public/images/payload-mask.svg

<svg xmlns="http://www.w3.org/2000/svg" width="1602" height="438" fill="none"><path d="M141.092 224.675H62.527v124.368H1V11.403h139.619c79.985 0 126.367 36.413 126.367 106.872 0 70.46-46.382 106.4-125.894 106.4zm-78.565-49.18h72.886c46.382 0 69.573-18.916 69.573-57.22 0-38.776-23.191-57.219-69.573-57.219H62.527v114.439zm370.59 173.548c-2.367-13.24-3.313-26.008-3.313-37.83-11.359 27.427-41.649 43.032-79.985 43.032-46.856 0-80.932-26.009-80.932-69.514 0-48.234 37.863-68.095 86.611-73.77l71.939-8.039v-11.349c0-29.319-17.984-43.506-45.435-43.506-26.504 0-42.596 14.66-44.489 36.885h-58.214c5.206-51.544 45.435-81.809 104.596-81.809 65.313 0 102.703 30.738 102.703 93.159v92.685c0 22.226.947 40.668 4.733 60.056h-58.214zm-66.733-36.885c31.236 0 61.053-18.442 61.053-56.273v-14.659l-53.481 6.147c-25.557 3.31-44.962 8.985-44.962 34.048 0 18.915 13.252 30.737 37.39 30.737zm226.411 36.412l-93.71-239.752h61.527l66.733 181.115h.946l63.421-181.115h60.107l-93.711 244.481c-22.717 60.057-50.641 83.228-101.283 83.701-8.046 0-19.404-.946-27.923-2.364v-45.87c7.099 1.418 10.885 1.418 16.091 1.418 24.611 0 35.023-8.512 47.802-41.614zm237.693.473h-60.581V1h60.581v348.043zm272.222-120.112c0 78.026-50.64 125.787-121.632 125.787-70.993 0-121.635-47.761-121.635-125.787 0-77.554 50.642-125.788 121.635-125.788 70.992 0 121.632 48.234 121.632 125.788zm-182.686 0c0 50.598 21.771 80.863 61.054 80.863 38.812 0 61.052-30.265 61.052-80.863 0-50.126-22.24-80.864-61.052-80.864-39.283 0-61.054 30.738-61.054 80.864zm358.096 120.112c-2.37-13.24-3.32-26.008-3.32-37.83-11.36 27.427-41.65 43.032-79.98 43.032-46.86 0-80.93-26.009-80.93-69.514 0-48.234 37.86-68.095 86.61-73.77l71.94-8.039v-11.349c0-29.319-17.99-43.506-45.44-43.506-26.5 0-42.59 14.66-44.49 36.885h-58.21c5.2-51.544 45.43-81.809 104.59-81.809 65.32 0 102.71 30.738 102.71 93.159v92.685c0 22.226.94 40.668 4.73 60.056h-58.21zm-66.74-36.885c31.24 0 61.06-18.442 61.06-56.273v-14.659l-53.48 6.147c-25.56 3.31-44.97 8.985-44.97 34.048 0 18.915 13.26 30.737 37.39 30.737zm329.99 36.885V310.74c-11.84 24.117-40.71 43.978-77.15 43.978-62.95 0-106.02-51.072-106.02-125.787 0-74.243 43.07-125.788 106.02-125.788 37.39 0 64.84 20.807 76.2 44.924V1H1601v348.043h-59.63zm.47-115.856v-8.512c0-46.816-22.25-77.081-60.58-77.081-39.28 0-62 32.157-62 81.337 0 49.653 22.72 81.336 62 81.336 38.33 0 60.58-30.265 60.58-77.08z" fill="#D9D9D9"/><path d="M62.527 349.543h.5V225.175h78.065c39.822 0 71.426-8.999 93.083-26.892 21.672-17.906 33.311-44.66 33.311-80.008 0-35.346-11.639-62.219-33.37-80.243-21.715-18.011-53.437-27.128-93.497-27.128H.5v338.639h62.027zm370.098-.412l.073.412H491.938l-.116-.595c-3.778-19.343-4.724-37.749-4.724-59.961v-92.685c0-31.313-9.382-54.756-27.028-70.362-17.635-15.597-43.448-23.297-76.175-23.297-29.662 0-54.626 7.587-72.837 21.68-18.219 14.099-29.64 34.68-32.256 60.579l-.056.55h59.226l.039-.457c.937-10.998 5.381-20.092 12.842-26.439 7.463-6.35 17.989-9.989 31.149-9.989 13.645 0 24.868 3.526 32.675 10.628 7.8 7.095 12.26 17.824 12.26 32.378v10.902l-71.495 7.989h-.002c-24.414 2.842-46.168 9.242-61.829 21.023-15.687 11.8-25.224 28.973-25.224 53.244 0 21.895 8.58 39.417 23.075 51.456 14.486 12.031 34.841 18.558 58.357 18.558 37.435 0 67.362-14.841 79.497-41.17.119 11.18 1.093 23.161 3.309 35.556zm66.46-240.813h-.733l.267.682 93.64 239.572c-6.358 16.435-12.104 26.683-19.254 32.84-7.148 6.155-15.764 8.272-28.012 8.272h-.002c-5.193 0-8.941 0-15.992-1.409l-.598-.119v46.903l.418.07c8.546 1.423 19.932 2.371 28.006 2.371h.005c25.401-.237 45.165-6.17 61.427-19.621 16.248-13.439 28.947-34.34 40.319-64.403l93.71-244.479.26-.679H691.357l-.117.335-63.303 180.78h-.244l-66.612-180.788-.121-.327h-61.875zm331.403 241.225h.5V.5h-61.581v349.043h61.081zm447.132-.412l.08.412h59.24l-.12-.595c-3.78-19.343-4.72-37.749-4.72-59.961v-92.685c0-31.313-9.38-54.756-27.03-70.362-17.64-15.597-43.45-23.297-76.18-23.297-29.66 0-54.62 7.587-72.83 21.68-18.22 14.099-29.64 34.68-32.26 60.579l-.05.55h59.22l.04-.457c.94-10.998 5.38-20.092 12.84-26.439 7.46-6.35 17.99-9.989 31.15-9.989 13.65 0 24.87 3.526 32.68 10.628 7.8 7.095 12.26 17.824 12.26 32.378v10.902l-71.5 7.989c-24.41 2.842-46.17 9.242-61.83 21.023-15.69 11.8-25.22 28.973-25.22 53.244 0 21.895 8.58 39.417 23.07 51.456 14.49 12.031 34.84 18.558 58.36 18.558 37.43 0 67.36-14.841 79.5-41.17a214.99 214.99 0 0 0 3.3 35.556zm263.25-.088v.5h60.63V.5h-61.58v145.413c-11.97-23.455-39.12-43.27-75.7-43.27-31.62 0-58.26 12.951-77 35.231-18.72 22.273-29.52 53.841-29.52 91.057 0 37.451 10.8 69.019 29.52 91.234 18.74 22.221 45.38 35.053 77 35.053 35.68 0 64.18-18.95 76.65-42.401v36.226zM135.413 174.995H63.027V61.556h72.386c23.139 0 40.396 4.603 51.864 13.956 11.447 9.337 17.209 23.479 17.209 42.763 0 19.047-5.761 33.191-17.211 42.587-11.468 9.413-28.726 14.133-51.862 14.133zm291.524 80.89c0 18.77-7.39 32.695-18.63 41.937-11.253 9.252-26.397 13.836-41.923 13.836-11.994 0-21.213-2.937-27.425-8.158-6.201-5.211-9.465-12.746-9.465-22.079 0-6.201 1.2-11.169 3.371-15.19 2.171-4.02 5.328-7.122 9.289-9.566 7.943-4.902 19.083-7.14 31.863-8.796h.003l52.917-6.083v14.099zm554.141 99.333c35.612 0 66.152-11.981 87.792-33.782 21.64-21.801 34.34-53.382 34.34-92.505 0-38.888-12.7-70.468-34.34-92.328-21.64-21.86-52.18-33.96-87.792-33.96s-66.155 12.1-87.795 33.96c-21.641 21.86-34.34 53.44-34.34 92.328 0 39.123 12.699 70.704 34.34 92.505 21.641 21.801 52.184 33.782 87.795 33.782zm0-45.924c-19.498 0-34.607-7.502-44.857-21.256-10.267-13.774-15.697-33.87-15.697-59.107 0-25 5.43-45.097 15.697-58.931 10.252-13.814 25.362-21.433 44.857-21.433 19.252 0 34.362 7.618 44.682 21.434 10.32 13.835 15.87 33.932 15.87 58.93 0 25.235-5.55 45.331-15.87 59.106-10.31 13.756-25.42 21.257-44.682 21.257zm290.862-53.409c0 18.77-7.39 32.695-18.63 41.937-11.26 9.252-26.4 13.836-41.93 13.836-11.99 0-21.21-2.937-27.42-8.158-6.2-5.211-9.47-12.746-9.47-22.079 0-6.201 1.2-11.169 3.37-15.19 2.17-4.02 5.33-7.122 9.29-9.566 7.95-4.902 19.09-7.14 31.87-8.796l52.92-6.083v14.099zm269.4-31.21v8.512c0 23.335-5.55 42.486-15.81 55.79-10.25 13.289-25.25 20.79-44.27 20.79-19.49 0-34.84-7.852-45.33-21.848-10.51-14.014-16.17-34.23-16.17-58.988 0-24.521 5.66-44.738 16.17-58.812 10.49-14.057 25.84-22.025 45.33-22.025 19.02 0 34.02 7.501 44.27 20.79 10.26 13.304 15.81 32.455 15.81 55.791z" stroke="#000" stroke-opacity=".02"/></svg>

<svg
  xmlns="http://www.w3.org/2000/svg"
  width="1602"
  height="438"
  viewBox="0 0 1602 438"
  fill="none"
>
  <path
    d="M141.092 224.675H62.5271V349.043H1V11.4035H140.619C220.604 11.4035 266.986 47.8156 266.986 118.275C266.986 188.735 220.604 224.675 141.092 224.675ZM62.5271 175.495H135.413C181.795 175.495 204.986 156.579 204.986 118.275C204.986 79.4989 181.795 61.0564 135.413 61.0564H62.5271V175.495Z"
    fill="#D9D9D9"
  />
  <path
    d="M433.117 349.043C430.75 335.803 429.804 323.035 429.804 311.213C418.445 338.64 388.155 354.245 349.819 354.245C302.963 354.245 268.887 328.236 268.887 284.731C268.887 236.497 306.75 216.636 355.498 210.961L427.437 202.922V191.573C427.437 162.254 409.453 148.067 382.002 148.067C355.498 148.067 339.406 162.727 337.513 184.952H279.299C284.505 133.408 324.734 103.143 383.895 103.143C449.208 103.143 486.598 133.881 486.598 196.302V288.987C486.598 311.213 487.545 329.655 491.331 349.043H433.117ZM366.384 312.158C397.62 312.158 427.437 293.716 427.437 255.885V241.226L373.956 247.373C348.399 250.683 328.994 256.358 328.994 281.421C328.994 300.336 342.246 312.158 366.384 312.158Z"
    fill="#D9D9D9"
  />
  <path
    d="M592.795 348.57L499.085 108.818H560.612L627.345 289.933H628.291L691.712 108.818H751.819L658.108 353.299C635.391 413.356 607.467 436.527 556.825 437C548.779 437 537.421 436.054 528.902 434.636V388.766C536.001 390.184 539.787 390.184 544.993 390.184C569.604 390.184 580.016 381.672 592.795 348.57Z"
    fill="#D9D9D9"
  />
  <path d="M830.488 349.043H769.907V1H830.488V349.043Z" fill="#D9D9D9" />
  <path
    d="M1102.71 228.931C1102.71 306.957 1052.07 354.718 981.078 354.718C910.085 354.718 859.443 306.957 859.443 228.931C859.443 151.377 910.085 103.143 981.078 103.143C1052.07 103.143 1102.71 151.377 1102.71 228.931ZM920.024 228.931C920.024 279.529 941.795 309.794 981.078 309.794C1019.89 309.794 1042.13 279.529 1042.13 228.931C1042.13 178.805 1019.89 148.067 981.078 148.067C941.795 148.067 920.024 178.805 920.024 228.931Z"
    fill="#D9D9D9"
  />
  <path
    d="M1278.12 349.043C1275.75 335.803 1274.8 323.035 1274.8 311.213C1263.44 338.64 1233.15 354.245 1194.82 354.245C1147.96 354.245 1113.89 328.236 1113.89 284.731C1113.89 236.497 1151.75 216.636 1200.5 210.961L1272.44 202.922V191.573C1272.44 162.254 1254.45 148.067 1227 148.067C1200.5 148.067 1184.41 162.727 1182.51 184.952H1124.3C1129.5 133.408 1169.73 103.143 1228.89 103.143C1294.21 103.143 1331.6 133.881 1331.6 196.302V288.987C1331.6 311.213 1332.54 329.655 1336.33 349.043H1278.12ZM1211.38 312.158C1242.62 312.158 1272.44 293.716 1272.44 255.885V241.226L1218.96 247.373C1193.4 250.683 1173.99 256.358 1173.99 281.421C1173.99 300.336 1187.25 312.158 1211.38 312.158Z"
    fill="#D9D9D9"
  />
  <path
    d="M1541.37 349.043V310.74C1529.53 334.857 1500.66 354.718 1464.22 354.718C1401.27 354.718 1358.2 303.646 1358.2 228.931C1358.2 154.688 1401.27 103.143 1464.22 103.143C1501.61 103.143 1529.06 123.95 1540.42 148.067V1H1601V349.043H1541.37ZM1541.84 233.187V224.675C1541.84 177.859 1519.59 147.594 1481.26 147.594C1441.98 147.594 1419.26 179.751 1419.26 228.931C1419.26 278.584 1441.98 310.267 1481.26 310.267C1519.59 310.267 1541.84 280.002 1541.84 233.187Z"
    fill="#D9D9D9"
  />
  <path
    d="M62.5271 349.543H63.0271V349.043V225.175H141.092C180.914 225.175 212.518 216.176 234.175 198.283C255.847 180.377 267.486 153.623 267.486 118.275C267.486 82.9286 255.847 56.0563 234.116 38.0322C212.401 20.0207 180.679 10.9035 140.619 10.9035H1H0.5V11.4035V349.043V349.543H1H62.5271ZM432.625 349.131L432.698 349.543H433.117H491.331H491.938L491.822 348.948C488.044 329.605 487.098 311.199 487.098 288.987V196.302C487.098 164.989 477.716 141.546 460.07 125.94C442.435 110.343 416.622 102.643 383.895 102.643C354.233 102.643 329.269 110.23 311.058 124.323C292.839 138.422 281.418 159.003 278.802 184.902L278.746 185.452H279.299H337.513H337.972L338.011 184.995C338.948 173.997 343.392 164.903 350.853 158.556C358.316 152.206 368.842 148.567 382.002 148.567C395.647 148.567 406.87 152.093 414.677 159.195C422.477 166.29 426.937 177.019 426.937 191.573V202.475L355.442 210.464L355.44 210.464C331.026 213.306 309.272 219.706 293.611 231.487C277.924 243.287 268.387 260.46 268.387 284.731C268.387 306.626 276.967 324.148 291.462 336.187C305.948 348.218 326.303 354.745 349.819 354.745C387.254 354.745 417.181 339.904 429.316 313.575C429.435 324.755 430.409 336.736 432.625 349.131ZM499.085 108.318H498.352L498.619 109L592.259 348.572C585.901 365.007 580.155 375.255 573.005 381.412C565.857 387.567 557.241 389.684 544.993 389.684H544.991C539.798 389.684 536.05 389.684 528.999 388.275L528.401 388.156V388.766V434.636V435.059L528.819 435.129C537.365 436.552 548.751 437.5 556.825 437.5L556.83 437.5C582.231 437.263 601.995 431.33 618.257 417.879C634.505 404.44 647.204 383.539 658.576 353.476L752.286 108.997L752.546 108.318H751.819H691.712H691.357L691.24 108.653L627.937 289.433H627.693L561.081 108.645L560.96 108.318H560.612H499.085ZM830.488 349.543H830.988V349.043V1V0.5H830.488H769.907H769.407V1V349.043V349.543H769.907H830.488ZM1277.62 349.131L1277.7 349.543H1278.12H1336.33H1336.94L1336.82 348.948C1333.04 329.605 1332.1 311.199 1332.1 288.987V196.302C1332.1 164.989 1322.72 141.546 1305.07 125.94C1287.43 110.343 1261.62 102.643 1228.89 102.643C1199.23 102.643 1174.27 110.23 1156.06 124.323C1137.84 138.422 1126.42 159.003 1123.8 184.902L1123.75 185.452H1124.3H1182.51H1182.97L1183.01 184.995C1183.95 173.997 1188.39 164.903 1195.85 158.556C1203.31 152.206 1213.84 148.567 1227 148.567C1240.65 148.567 1251.87 152.093 1259.68 159.195C1267.48 166.29 1271.94 177.019 1271.94 191.573V202.475L1200.44 210.464L1200.44 210.464C1176.03 213.306 1154.27 219.706 1138.61 231.487C1122.92 243.287 1113.39 260.46 1113.39 284.731C1113.39 306.626 1121.97 324.148 1136.46 336.187C1150.95 348.218 1171.3 354.745 1194.82 354.745C1232.25 354.745 1262.18 339.904 1274.32 313.575C1274.43 324.755 1275.41 336.736 1277.62 349.131ZM1540.87 349.043V349.543H1541.37H1601H1601.5V349.043V1V0.5H1601H1540.42H1539.92V1V145.913C1527.95 122.458 1500.8 102.643 1464.22 102.643C1432.6 102.643 1405.96 115.594 1387.22 137.874C1368.5 160.147 1357.7 191.715 1357.7 228.931C1357.7 266.382 1368.5 297.95 1387.22 320.165C1405.96 342.386 1432.6 355.218 1464.22 355.218C1499.9 355.218 1528.4 336.268 1540.87 312.817V349.043ZM135.413 174.995H63.0271V61.5564H135.413C158.552 61.5564 175.809 66.159 187.277 75.5122C198.724 84.8489 204.486 98.9907 204.486 118.275C204.486 137.322 198.725 151.466 187.275 160.862C175.807 170.275 158.549 174.995 135.413 174.995ZM426.937 255.885C426.937 274.655 419.547 288.58 408.307 297.822C397.054 307.074 381.91 311.658 366.384 311.658C354.39 311.658 345.171 308.721 338.959 303.5C332.758 298.289 329.494 290.754 329.494 281.421C329.494 275.22 330.694 270.252 332.865 266.231C335.036 262.211 338.193 259.109 342.154 256.665C350.097 251.763 361.237 249.525 374.017 247.869C374.018 247.869 374.019 247.869 374.02 247.869L426.937 241.786V255.885ZM981.078 355.218C1016.69 355.218 1047.23 343.237 1068.87 321.436C1090.51 299.635 1103.21 268.054 1103.21 228.931C1103.21 190.043 1090.51 158.463 1068.87 136.603C1047.23 114.743 1016.69 102.643 981.078 102.643C945.466 102.643 914.923 114.743 893.283 136.603C871.642 158.463 858.943 190.043 858.943 228.931C858.943 268.054 871.642 299.635 893.283 321.436C914.924 343.237 945.467 355.218 981.078 355.218ZM981.078 309.294C961.58 309.294 946.471 301.792 936.221 288.038C925.954 274.264 920.524 254.168 920.524 228.931C920.524 203.931 925.954 183.834 936.221 170C946.473 156.186 961.583 148.567 981.078 148.567C1000.33 148.567 1015.44 156.185 1025.76 170.001C1036.08 183.836 1041.63 203.933 1041.63 228.931C1041.63 254.166 1036.08 274.262 1025.76 288.037C1015.45 301.793 1000.34 309.294 981.078 309.294ZM1271.94 255.885C1271.94 274.655 1264.55 288.58 1253.31 297.822C1242.05 307.074 1226.91 311.658 1211.38 311.658C1199.39 311.658 1190.17 308.721 1183.96 303.5C1177.76 298.289 1174.49 290.754 1174.49 281.421C1174.49 275.22 1175.69 270.252 1177.86 266.231C1180.03 262.211 1183.19 259.109 1187.15 256.665C1195.1 251.763 1206.24 249.525 1219.02 247.869C1219.02 247.869 1219.02 247.869 1219.02 247.869L1271.94 241.786V255.885ZM1541.34 224.675V233.187C1541.34 256.522 1535.79 275.673 1525.53 288.977C1515.28 302.266 1500.28 309.767 1481.26 309.767C1461.77 309.767 1446.42 301.915 1435.93 287.919C1425.42 273.905 1419.76 253.689 1419.76 228.931C1419.76 204.41 1425.42 184.193 1435.93 170.119C1446.42 156.062 1461.77 148.094 1481.26 148.094C1500.28 148.094 1515.28 155.595 1525.53 168.884C1535.79 182.188 1541.34 201.339 1541.34 224.675Z"
    stroke="black"
    stroke-opacity="0.02"
  />
</svg>
